layouts/icon-pack/spell_fire.svg

<?xml version="1.0" encoding="UTF-8"?>
<svg width="1200pt" height="1200pt" version="1.1" viewBox="0 0 1200 1200" xmlns="http://www.w3.org/2000/svg">
 <g fill="#fff">
  <path d="m883.8 140.62c-20.883 31.664-44.531 78.703-49.828 134.23-3.9609 42.188 9.375 84.492 38.25 115.36 16.828 17.953 39.492 33.258 68.086 33.797 26.695 0.49219 51.422-13.289 67.219-34.805 21.375-28.133 28.156-64.727 18.281-98.648-5.668-19.891-15.547-38.332-28.969-54.07-15.117-18.117-43.477-54.352-62.297-92.344-3.0156-6.2188-8.1328-11.172-14.445-13.984-6.3164-2.8125-13.418-3.3047-20.059-1.3906-6.6406 1.918-12.395 6.1172-16.238 11.859z"/>
  <path d="m824.11 455.67c-69.422-68.25-106.15-163.83-96.398-260.74 2.0469-20.188 5.8047-40.164 11.227-59.719 11.367-41.109-28.125-78.328-68.391-64.383-312.05 107.98-438.12 419.53-480.47 562.5-18.578 61.23-24.371 125.62-17.016 189.19 22.148 182.81 141.07 259.03 244.73 290.62 87.164 26.461 180.23 24.914 267.61-0.84375 239.84-70.734 273.52-237.23 273.52-237.23 46.547-195.38-62.109-347.98-134.81-419.39zm-236.34 495.73c-114.56 7.7578-170.48-55.219-197.72-115.38-25.102-55.453-28.969-117.19-13.875-176.04 21.328-83.18 65.906-144.14 106.88-185.16 23.273-23.438 65.625-7.0312 62.953 24.375-2.7188 32.203 2.9062 55.031 10.594 70.805 12.539 25.664 46.242 35.719 73.57 22.5 4.1016-1.9922 8.0977-4.1875 11.977-6.5859 29.836-18.258 70.031-4.5469 79.688 26.906 11.133 37.605 18.207 76.293 21.094 115.41 17.25 211.62-155.16 223.17-155.16 223.17z"/>
 </g>
</svg>

<?xml version="1.0" encoding="UTF-8" standalone="no"?>
<!DOCTYPE svg PUBLIC "-//W3C//DTD SVG 1.1//EN" "http://www.w3.org/Graphics/SVG/1.1/DTD/svg11.dtd">
<svg width="100%" height="100%" viewBox="0 0 414 512" version="1.1" xmlns="http://www.w3.org/2000/svg" xmlns:xlink="http://www.w3.org/1999/xlink" xml:space="preserve" xmlns:serif="http://www.serif.com/" style="fill-rule:evenodd;clip-rule:evenodd;stroke-linejoin:round;stroke-miterlimit:2;">
    <g transform="matrix(1,0,0,1,-169.968,-67.8448)">
        <g transform="matrix(0.480993,0,0,0.480993,88.2146,35.2119)">
            <path d="M883.8,140.62C862.917,172.284 839.269,219.323 833.972,274.85C830.011,317.038 843.347,359.342 872.222,390.21C889.05,408.163 911.714,423.468 940.308,424.007C967.003,424.499 991.73,410.718 1007.53,389.202C1028.9,361.069 1035.68,324.475 1025.81,290.554C1020.14,270.663 1010.26,252.222 996.839,236.484C981.722,218.367 953.362,182.132 934.542,144.14C931.526,137.921 926.409,132.968 920.097,130.156C913.781,127.344 906.679,126.851 900.038,128.765C893.397,130.683 887.643,134.883 883.8,140.624L883.8,140.62Z" style="fill:white;fill-rule:nonzero;"/>
            <path d="M824.11,455.67C754.688,387.42 717.96,291.84 727.712,194.93C729.759,174.742 733.517,154.766 738.939,135.211C750.306,94.102 710.814,56.883 670.548,70.828C358.498,178.808 232.428,490.358 190.078,633.328C171.5,694.558 165.707,758.948 173.062,822.518C195.21,1005.33 314.132,1081.55 417.792,1113.14C504.956,1139.6 598.022,1138.05 685.402,1112.29C925.242,1041.56 958.922,875.064 958.922,875.064C1005.47,679.684 896.813,527.084 824.112,455.674L824.11,455.67ZM587.77,951.4C473.21,959.158 417.29,896.181 390.05,836.02C364.948,780.567 361.081,718.83 376.175,659.98C397.503,576.8 442.081,515.84 483.055,474.82C506.328,451.382 548.68,467.789 546.008,499.195C543.289,531.398 548.914,554.226 556.602,570C569.141,595.664 602.844,605.719 630.172,592.5C634.274,590.508 638.27,588.313 642.149,585.914C671.985,567.656 712.18,581.367 721.837,612.82C732.97,650.425 740.044,689.113 742.931,728.23C760.181,939.85 587.771,951.4 587.771,951.4L587.77,951.4Z" style="fill:white;fill-rule:nonzero;"/>
        </g>
    </g>
</svg>
